icons/change-font-size-32.svg

<?xml version="1.0" encoding="UTF-8"?><svg id="icons" xmlns="http://www.w3.org/2000/svg" viewBox="0 0 32 32"><defs><style>.cls-1{fill:none;}.cls-1,.cls-2{stroke-width:0px;}.cls-2{fill:#231f20;}</style></defs><rect class="cls-1" width="32" height="32"/><path class="cls-2" d="M32,29L21.94501,3h-.89001l-10.05499,26h1.05896l3.4632-9h11.95569l3.4632,9h1.05896ZM15.90698,19l5.59302-14.53479,5.59302,14.53479h-11.18604ZM5,17h-.5L0,29h1.02539l1.44531-4h5.05859l1.44531,4h1.02539l-4.5-12h-.5ZM2.83203,24l2.16797-6,2.16797,6H2.83203Z"/></svg>

<svg xmlns="http://www.w3.org/2000/svg" viewBox="0 0 32 32"><path stroke-width="0" fill="none" d="M0 0h32v32H0z"/><path d="M32 29L21.945 3h-.89L11 29h1.059l3.463-9h11.956l3.463 9H32zM15.907 19L21.5 4.465 27.093 19H15.907zM5 17h-.5L0 29h1.025l1.446-4h5.058l1.446 4H10L5.5 17H5zm-2.168 7L5 18l2.168 6H2.832z" fill="#231f20" stroke-width="0"/></svg>
